X:65
T: Bonaparte's Grand March
R: march
M: 4/4
L: 1/8
K: D
   A>B      | d2 d>c d2 A/B/c/d/ | e>d ef e2 A/B/d/e/ | f2 ef gf ed       | e2 e>f e2    |
   AB/c/    | dd AA FF AA        | dd AA FF AA        | d>c df ed ef      | d2 d>c d2   :|
|: gf       | ed cB AB c/B/A     | d2 d>c de fd       | ed cB AB c/B/A    |  d2 d>c de   |
   f/e/d/c/ | B2 g>g g2 g/f/e/d/ | Af/f/ ff fa gf     | e2 e>f ed ef      |1 d2 d>c df  :|2 d2 d>c de ||
|: fg       | a2 aa b2 bb        | a2 aa f2 af        | g2 gg f2 af       | g>f ed e2 A/d/e/f/ |
gf ed ce A2 | aa ff dd A2        | fA d/e/f/a/ gf ed  | Aa/a/ aa ae       ||
   fg       | a2 aa b2 bb        | a2 aa f2 af        | g2 gg f2 af       | g>f ed e2 A/d/e/f/ |
gf ed ce A2 | aa ff dd A2        | fA d/e/f/a/ gf ef  | d2 d>c d2         |]

